X: 25775
T: Maryann's Choice
R: jig
M: 6/8
K: Fmajor
A2c cBA|AGF FAc|d2d dcA|G2G GAB|
A2c cBA|AGF FAc|d2f cAG|F3 FAB||
A2c cBA|AGF FAc|d2d dcA|cAG GAB|
A2c cBA|AGF FAc|d2f cAG|F3 FAB||
|:AFA cfe|d2d dcA|d2d dfa|g2g gfg|
agf gfd|fdc dcA|GAB A2G|F3 FAB:|

